svgs/duotone/files-medical.svg

<svg xmlns="http://www.w3.org/2000/svg" viewBox="0 0 448 512"><!--! Font Awesome Pro 6.6.0 by @fontawesome - https://fontawesome.com License - https://fontawesome.com/license (Commercial License) Copyright 2024 Fonticons, Inc. --><defs><style>.fa-secondary{opacity:.4}</style></defs><path class="fa-secondary" d="M96 64l0 288c0 35.3 28.7 64 64 64l224 0c35.3 0 64-28.7 64-64l0-256-64 0c-17.7 0-32-14.3-32-32l0-64L160 0C124.7 0 96 28.7 96 64zm80 176c0-8.8 7.2-16 16-16l48 0 0-48c0-8.8 7.2-16 16-16l32 0c8.8 0 16 7.2 16 16l0 48 48 0c8.8 0 16 7.2 16 16l0 32c0 8.8-7.2 16-16 16l-48 0 0 48c0 8.8-7.2 16-16 16l-32 0c-8.8 0-16-7.2-16-16l0-48-48 0c-8.8 0-16-7.2-16-16l0-32z"/><path class="fa-primary" d="M352 64l0-64 96 96-64 0c-17.7 0-32-14.3-32-32zM24 96c13.3 0 24 10.7 24 24l0 256c0 48.6 39.4 88 88 88l192 0c13.3 0 24 10.7 24 24s-10.7 24-24 24l-192 0C60.9 512 0 451.1 0 376L0 120c0-13.3 10.7-24 24-24zm216 80c0-8.8 7.2-16 16-16l32 0c8.8 0 16 7.2 16 16l0 48 48 0c8.8 0 16 7.2 16 16l0 32c0 8.8-7.2 16-16 16l-48 0 0 48c0 8.8-7.2 16-16 16l-32 0c-8.8 0-16-7.2-16-16l0-48-48 0c-8.8 0-16-7.2-16-16l0-32c0-8.8 7.2-16 16-16l48 0 0-48z"/></svg>

<svg xmlns="http://www.w3.org/2000/svg" viewBox="0 0 448 512"><!--! Font Awesome Pro 6.5.2 by @fontawesome - https://fontawesome.com License - https://fontawesome.com/license (Commercial License) Copyright 2024 Fonticons, Inc. --><defs><style>.fa-secondary{opacity:.4}</style></defs><path class="fa-secondary" d="M352 0H160C124.7 0 96 28.7 96 64V352c0 35.3 28.7 64 64 64H384c35.3 0 64-28.7 64-64V96H384c-17.7 0-32-14.3-32-32V0zM240 176c0-8.8 7.2-16 16-16h32c8.8 0 16 7.2 16 16v48h48c8.8 0 16 7.2 16 16v32c0 8.8-7.2 16-16 16H304v48c0 8.8-7.2 16-16 16H256c-8.8 0-16-7.2-16-16V288H192c-8.8 0-16-7.2-16-16V240c0-8.8 7.2-16 16-16h48V176z"/><path class="fa-primary" d="M352 64V0l96 96H384c-17.7 0-32-14.3-32-32zM24 96c13.3 0 24 10.7 24 24V376c0 48.6 39.4 88 88 88H328c13.3 0 24 10.7 24 24s-10.7 24-24 24H136C60.9 512 0 451.1 0 376V120c0-13.3 10.7-24 24-24zm216 80c0-8.8 7.2-16 16-16h32c8.8 0 16 7.2 16 16v48h48c8.8 0 16 7.2 16 16v32c0 8.8-7.2 16-16 16H304v48c0 8.8-7.2 16-16 16H256c-8.8 0-16-7.2-16-16V288H192c-8.8 0-16-7.2-16-16V240c0-8.8 7.2-16 16-16h48V176z"/></svg>
